icons/1_Primary/URIports.svg

<svg width="1024" height="1024" fill="none" xmlns="http://www.w3.org/2000/svg"><g clip-path="url(#a)"><path d="M512 1024c282.77 0 512-229.23 512-512S794.77 0 512 0 0 229.23 0 512s229.23 512 512 512Z" fill="#9ABEFF"/><path d="m307.65 345.59 64.5-64.5a48.744 48.744 0 0 1 3.65-3.3 47.856 47.856 0 0 1 23.46-10.29c1.1-.16 2.2-.28 3.3-.36 1.1-.08 2.3-.127 3.6-.14 1.54 0 3.077.073 4.61.22a47.91 47.91 0 0 1 29.41 13.87l64.5 64.5-7.68 7.66-90.83 90.85-98.52-98.51ZM527 353.25l90.86 90.85 98.51-98.51-64.5-64.5A47.884 47.884 0 0 0 631.53 269a45.762 45.762 0 0 0-3.37-.87 48.322 48.322 0 0 0-8.59-1.08h-1.73c-1.153 0-2.307.04-3.46.12a48.359 48.359 0 0 0-8 1.25 47.675 47.675 0 0 0-4.46 1.32c-.733.26-1.463.537-2.19.83a44.992 44.992 0 0 0-4.27 2 55.016 55.016 0 0 0-4.1 2.42c-.667.44-1.333.9-2 1.38a48.682 48.682 0 0 0-5.57 4.78l-64.5 64.5 7.71 7.6Zm-22.64 7.32-90.86 90.85.34.34 7.32 7.32L512 549.94l90.85-90.86 7.32-7.32.34-.34-90.86-90.85-7.32-7.32-.34-.34-.34.34-7.29 7.32Zm-113.17 98.51 7.32-7.32.34-.34-98.51-98.51-.34.34-7.32 7.32-64.5 64.5a48.11 48.11 0 0 0 0 68l64.5 64.5 98.51-98.52v.03Zm113.15 98.52.34-.34-45.43-45.43-45.42-45.43-7.32-7.32-.34-.34-.34.34-7.32 7.32L300 564.92l7.66 7.66 90.85 90.85L497 564.92l7.34-7.32Zm305.49-101.4a48.255 48.255 0 0 0-1.29-8.57c-.187-.753-.39-1.5-.61-2.24a47.856 47.856 0 0 0-2.48-6.56 51.284 51.284 0 0 0-2.2-4.19 47.875 47.875 0 0 0-2.64-4 33.28 33.28 0 0 0-1.49-1.92 48.548 48.548 0 0 0-3.3-3.65l-64.5-64.5-7.32-7.32-.34-.34-98.51 98.51.34.34 7.32 7.32 98.51 98.52 64.5-64.5a48.548 48.548 0 0 0 4.79-5.57 47.627 47.627 0 0 0 2.64-4 39.493 39.493 0 0 0 2.2-4.19 47.856 47.856 0 0 0 2.48-6.56c.22-.747.423-1.493.61-2.24a48.255 48.255 0 0 0 1.29-8.57 46.159 46.159 0 0 0 0-5.77Zm-184.34 10.2-7.32-7.32-.15-.15-.19-.19-.34.34-7.32 7.32-90.85 90.86.34.34 7.32 7.32 98.52 98.52 90.85-90.85 7.66-7.66-98.52-98.53Zm-7.32 204.35-98.52-98.52-7.32-7.32-.34-.34-.34.34-7.32 7.32-98.51 98.52.29.29 7.32 7.32 64.5 64.5a48.043 48.043 0 0 0 9.57 7.43c1.333.807 2.73 1.54 4.19 2.2a48.004 48.004 0 0 0 15.65 4.24 48.273 48.273 0 0 0 9.22 0 47.997 47.997 0 0 0 15.65-4.24 51.284 51.284 0 0 0 4.19-2.2 48.043 48.043 0 0 0 9.57-7.43l64.5-64.5 7.32-7.32.33-.33.05.04Z" fill="#fff"/></g><defs><clipPath id="a"><path fill="#fff" d="M0 0h1024v1024H0z"/></clipPath></defs></svg>

<svg width="1024" height="1024" viewBox="0 0 1024 1024" fill="none" xmlns="http://www.w3.org/2000/svg">
<g clip-path="url(#clip0_2_3816)">
<path d="M512 1024C794.77 1024 1024 794.77 1024 512C1024 229.23 794.77 0 512 0C229.23 0 0 229.23 0 512C0 794.77 229.23 1024 512 1024Z" fill="#9ABEFF"/>
<path d="M307.65 345.59L372.15 281.09C373.31 279.929 374.529 278.828 375.8 277.79C382.54 272.292 390.65 268.734 399.26 267.5C400.36 267.34 401.46 267.22 402.56 267.14C403.66 267.06 404.86 267.013 406.16 267C407.7 267 409.237 267.073 410.77 267.22C421.891 268.273 432.293 273.18 440.18 281.09L504.68 345.59L497 353.25L406.17 444.1L307.65 345.59ZM527 353.25L617.86 444.1L716.37 345.59L651.87 281.09C646.208 275.422 639.215 271.265 631.53 269C630.417 268.667 629.293 268.377 628.16 268.13C625.335 267.514 622.46 267.152 619.57 267.05H617.84C616.687 267.05 615.533 267.09 614.38 267.17C613.227 267.25 612.077 267.373 610.93 267.54C609.403 267.76 607.887 268.053 606.38 268.42C604.873 268.787 603.387 269.227 601.92 269.74C601.187 270 600.457 270.277 599.73 270.57C598.283 271.157 596.86 271.823 595.46 272.57C594.06 273.317 592.693 274.123 591.36 274.99C590.693 275.43 590.027 275.89 589.36 276.37C588.873 276.73 588.393 277.097 587.92 277.47C586.475 278.617 585.096 279.846 583.79 281.15L519.29 345.65L527 353.25ZM504.36 360.57L413.5 451.42L413.84 451.76L421.16 459.08L512 549.94L602.85 459.08L610.17 451.76L610.51 451.42L519.65 360.57L512.33 353.25L511.99 352.91L511.65 353.25L504.36 360.57ZM391.19 459.08L398.51 451.76L398.85 451.42L300.34 352.91L300 353.25L292.68 360.57L228.18 425.07C219.169 434.091 214.108 446.32 214.108 459.07C214.108 471.82 219.169 484.049 228.18 493.07L292.68 557.57L391.19 459.05V459.08ZM504.34 557.6L504.68 557.26L459.25 511.83L413.83 466.4L406.51 459.08L406.17 458.74L405.83 459.08L398.51 466.4L300 564.92L307.66 572.58L398.51 663.43L497 564.92L504.34 557.6ZM809.83 456.2C809.658 453.31 809.226 450.442 808.54 447.63C808.353 446.877 808.15 446.13 807.93 445.39C807.265 443.146 806.436 440.953 805.45 438.83C804.783 437.403 804.05 436.007 803.25 434.64C802.437 433.263 801.556 431.928 800.61 430.64C800.13 429.973 799.633 429.333 799.12 428.72C798.082 427.448 796.981 426.23 795.82 425.07L731.32 360.57L724 353.25L723.66 352.91L625.15 451.42L625.49 451.76L632.81 459.08L731.32 557.6L795.82 493.1C796.981 491.94 798.082 490.722 799.12 489.45C799.633 488.823 800.13 488.183 800.61 487.53C801.556 486.242 802.438 484.907 803.25 483.53C804.057 482.197 804.79 480.8 805.45 479.34C806.436 477.217 807.265 475.024 807.93 472.78C808.15 472.033 808.353 471.287 808.54 470.54C809.226 467.728 809.658 464.86 809.83 461.97C809.89 461.01 809.92 460.05 809.92 459.09C809.92 458.13 809.89 457.167 809.83 456.2ZM625.49 466.4L618.17 459.08L618.02 458.93L617.83 458.74L617.49 459.08L610.17 466.4L519.32 557.26L519.66 557.6L526.98 564.92L625.5 663.44L716.35 572.59L724.01 564.93L625.49 466.4ZM618.17 670.75L519.65 572.23L512.33 564.91L511.99 564.57L511.65 564.91L504.33 572.23L405.82 670.75L406.11 671.04L413.43 678.36L477.93 742.86C479.09 744.021 480.309 745.122 481.58 746.16C483.447 747.683 485.426 749.064 487.5 750.29C488.833 751.097 490.23 751.83 491.69 752.49C496.629 754.781 501.921 756.214 507.34 756.73C508.873 756.877 510.41 756.95 511.95 756.95C513.49 756.95 515.027 756.877 516.56 756.73C521.979 756.214 527.272 754.781 532.21 752.49C533.637 751.823 535.033 751.09 536.4 750.29C538.474 749.064 540.453 747.683 542.32 746.16C543.592 745.122 544.81 744.021 545.97 742.86L610.47 678.36L617.79 671.04L618.12 670.71L618.17 670.75Z" fill="white"/>
</g>
<defs>
<clipPath id="clip0_2_3816">
<rect width="1024" height="1024" fill="white"/>
</clipPath>
</defs>
</svg>
